X:1
T:Title
%%score { ( 1 3 ) | 2 }
L:1/8
M:3/4
K:Ab
V:1 treble nm="Grand Piano"
V:3 treble 
V:2 bass 
V:1
 z2 z2[Q:1/4=100] [CE]>[_C=D] | [_CF]2 [=CE]2 [Ec]>[EA] | A2 G2 E>=D | F2 E2 [Gd]>[Fd] | %4
[M:2/4] c4 |[M:1/4] c>d |[M:3/4] e2 c2 B>c | [Fd]2 [FA]2 AF | EA G2 B2 |[M:2/4] [CEA]4 | %10
[M:1/4] [C_GA]>[CGA] |[M:3/4] .[A,FA]2 z [Fd] [=EA][EB] | [Ec]2 [CA]2 [_GA]>[GA] | %13
 [Fd]3 [FA] [FA][FB] |[M:2/4] [=Ec]4 |[M:1/4] [CE]>[_C=D] |[M:3/4] [CE]2 [EA]2 Bc | %17
[M:7/8] [_Ge]2 [Fd]3 [FA][DF] |[M:3/4] [CE][_Gc] [=Gd]2 [DEG]2 |[M:2/4] [CEA]4 |] %20
V:2
 z2 z2 [A,,E,]>[A,,F,] | [A,,=D,]2 [A,,E,]2 [A,,A,]>[C,A,] | [E,B,D]2 [E,B,D]2 [E,G,D]>[F,A,_C] | %3
 [E,A,D]2 [E,G,D]2 [E,B,]>[E,G,] |[M:2/4] [A,,A,]4 |[M:1/4][K:treble] [A,E]>[A,B,E] | %6
[M:3/4] [A,CE]2 [A,EA]2 [A,DG]>[A,_G] | [D,A,]2 [D,A,]2 [D,F,D][=D,A,_C] | %8
 [E,A,C][E,CE] [E,B,E]2 [E,DE]2 |[M:2/4] A,,4 |[M:1/4] A,>A, |[M:3/4] .D,2 z [D,A,] [D,D][D,A,] | %12
 [A,,A,]2 [A,,E,]2 [C,A,]>[C,A,] | [D,A,]3 [D,A,] [D,A,][D,F,] |[M:2/4] [C,G,]4 | %15
[M:1/4] [A,,A,]>[A,,F,] |[M:3/4] [A,,A,]2 [C,A,]2 [E,G,E][A,E] | %17
[M:7/8] [D,A,]2 [D,A,]3 [D,A,][D,A,] |[M:3/4] [E,A,][E,=A,] [E,B,]2 E,2 |[M:2/4] A,,4 |] %20
V:3
 x6 | x6 | x6 | x6 |[M:2/4] F2 E2 |[M:1/4] x2 |[M:3/4] x6 | x6 | x6 |[M:2/4] x4 |[M:1/4] x2 | %11
[M:3/4] x6 | x6 | x6 |[M:2/4] x4 |[M:1/4] x2 |[M:3/4] x6 |[M:7/8] x7 |[M:3/4] x6 |[M:2/4] x4 |] %20

